Project/img/SPEECH.svg

<svg xmlns="http://www.w3.org/2000/svg" xmlns:xlink="http://www.w3.org/1999/xlink" preserveAspectRatio="xMidYMid" width="63" height="61" viewBox="0 0 63 61">
  <defs>
    <style>
      .cls-1 {
        fill: #95e1d3;
        fill-rule: evenodd;
      }
    </style>
  </defs>
  <path d="M60.000,35.998 L59.100,35.998 L59.100,35.998 L58.000,35.998 L58.000,40.999 L58.000,40.999 C58.000,41.204 57.979,41.408 57.939,41.603 C57.911,41.739 57.863,41.866 57.817,41.995 C57.797,42.053 57.787,42.112 57.764,42.165 C57.716,42.280 57.649,42.385 57.588,42.492 C57.553,42.552 57.527,42.618 57.488,42.676 C57.390,42.820 57.276,42.954 57.154,43.079 C57.142,43.092 57.134,43.108 57.121,43.119 C56.587,43.655 55.850,43.985 55.037,43.995 C55.025,43.995 55.013,43.997 55.000,43.997 L55.000,43.997 L55.000,43.997 C54.172,43.997 53.422,43.663 52.879,43.119 L45.757,35.998 L45.400,35.998 L45.400,35.998 L18.000,35.998 C16.343,35.998 15.000,34.655 15.000,32.998 L15.000,2.998 C15.000,1.341 16.343,-0.003 18.000,-0.003 L60.000,-0.003 C61.657,-0.003 63.000,1.341 63.000,2.998 L63.000,32.998 C63.000,34.655 61.657,35.998 60.000,35.998 ZM44.515,38.998 L50.841,45.325 L50.849,45.317 C51.928,46.354 53.386,46.999 55.000,46.999 L55.000,48.999 C55.000,50.655 53.657,51.998 52.000,51.998 L52.000,51.998 L30.900,51.998 L30.900,51.998 L24.000,51.998 L24.000,51.998 L21.000,51.998 L21.000,51.998 L20.243,51.998 L12.121,60.120 C11.578,60.662 10.828,60.999 10.000,60.999 L10.000,60.999 L10.000,60.999 C9.987,60.999 9.976,60.995 9.963,60.995 C9.149,60.984 8.413,60.654 7.879,60.120 C7.866,60.107 7.858,60.091 7.846,60.079 C7.724,59.954 7.610,59.820 7.512,59.675 C7.473,59.618 7.448,59.553 7.413,59.492 C7.351,59.384 7.284,59.280 7.236,59.166 C7.213,59.112 7.203,59.052 7.183,58.996 C7.137,58.866 7.089,58.740 7.061,58.602 C7.021,58.408 7.000,58.205 7.000,57.997 L7.000,57.997 L7.000,51.998 L6.500,51.998 L6.500,51.998 L2.996,51.998 C1.341,51.995 0.000,50.654 0.000,48.999 L0.000,14.999 C0.000,14.998 0.000,14.998 0.000,14.998 C0.000,13.340 1.343,11.998 3.000,11.998 L12.000,11.998 L12.000,32.998 C12.000,36.311 14.686,38.998 18.000,38.998 L44.515,38.998 Z" class="cls-1"/>
</svg>

<svg xmlns="http://www.w3.org/2000/svg" width="63" height="61" preserveAspectRatio="xMidYMid"><defs><style>.cls-1 { fill: #95e1d3; fill-rule: evenodd; }</style></defs><path d="M60 36h-2v5c0 .2-.02.4-.06.6-.03.14-.08.27-.12.4-.02.05-.03.1-.06.16-.04.12-.1.23-.17.33-.05.05-.07.12-.1.18-.1.14-.22.27-.35.4 0 0-.02.03-.03.04-.53.54-1.27.87-2.08.88-.02 0-.03 0-.04 0-.83 0-1.58-.34-2.12-.88L45.76 36H18c-1.66 0-3-1.34-3-3V3c0-1.66 1.34-3 3-3h42c1.66 0 3 1.34 3 3v30c0 1.66-1.34 3-3 3zm-15.48 3l6.32 6.33C51.95 46.34 53.4 47 55 47v2c0 1.66-1.34 3-3 3H20.24l-8.12 8.12c-.54.54-1.3.88-2.12.88 0 0-.02 0-.04 0-.8-.02-1.55-.35-2.08-.88 0 0-.02-.03-.03-.04-.13-.13-.24-.26-.34-.4-.03-.06-.05-.13-.1-.2-.05-.1-.12-.2-.16-.3-.03-.07-.04-.13-.06-.18-.04-.13-.1-.26-.12-.4-.04-.2-.06-.4-.06-.6v-6H3c-1.66 0-3-1.35-3-3V15c0-1.66 1.34-3 3-3h9v21c0 3.3 2.7 6 6 6h26.52z" class="cls-1"/></svg>
